src/static/logos/unbounce.svg

<?xml version="1.0" encoding="UTF-8" standalone="no"?>
<svg width="256px" height="256px" viewBox="0 0 256 256" version="1.1" xmlns="http://www.w3.org/2000/svg" xmlns:xlink="http://www.w3.org/1999/xlink" preserveAspectRatio="xMidYMid">
    <g>
        <path d="M128.000675,0 C57.3056738,0 0,57.3073274 0,128.000002 C0,198.692678 57.3056738,256.000005 128.000675,256.000005 C198.695676,256.000005 256,198.692678 256,128.000002 C256,57.3073274 198.695676,0 128.000675,0 L128.000675,0 Z M92.6099657,218.026018 C94.0250539,208.914314 95.375329,200.539864 96.6378362,192.810848 C68.4467934,178.681495 50.581304,150.233749 55.1384823,117.358428 C61.356499,72.7086464 95.7358524,49.8105606 138.97031,53.7061248 C142.248778,49.0652048 145.847261,44.6119741 149.943995,40.3032235 C157.236831,32.1488692 168.084941,31.8923156 163.206397,41.5549351 C153.372344,60.1631743 149.486252,74.2115105 141.040281,96.7720257 C132.622667,120.766541 119.611416,155.984601 102.290088,217.819425 C101.037032,223.482509 92.1616743,222.57917 92.6099657,218.026018 L92.6099657,218.026018 Z M200.927681,136.030131 C195.306486,178.662591 155.458519,202.856948 115.846849,198.679175 C118.721585,188.958493 120.084012,184.813127 123.416491,176.977439 C125.930703,172.455344 135.343471,170.608158 142.65251,167.501158 C157.500135,162.164843 168.901857,148.913173 171.055546,132.189928 C172.571905,120.3331 169.108449,108.971826 162.319266,100.19094 C157.571699,94.165981 153.096888,90.5148179 154.625399,84.859836 C156.873607,77.2239901 158.599258,71.5568556 162.791862,61.9617502 C188.818414,75.941222 205.04332,104.97634 200.927681,136.030131 Z M85.0416739,121.179727 C83.5725746,132.584211 86.6782073,143.470186 92.9043256,152.05663 C97.0537209,157.599539 100.232268,160.830764 101.789136,163.374696 C106.91748,135.59804 110.619934,121.229687 115.552489,105.108668 C117.76424,98.3748107 121.427536,88.9295866 124.079476,82.4981924 C120.917132,83.5568137 116.430168,84.7342598 112.765522,86.1682595 C98.2500646,91.6112471 87.1548544,104.726538 85.0416739,121.179727 Z" fill="#278CC0"></path>
    </g>
</svg>

<svg width="256" height="256" xmlns="http://www.w3.org/2000/svg" preserveAspectRatio="xMidYMid"><path d="M128 0C57.307 0 0 57.307 0 128s57.306 128 128 128c70.696 0 128-57.307 128-128S198.696 0 128 0zM92.61 218.026a3217.662 3217.662 0 014.028-25.215c-28.191-14.13-46.057-42.577-41.5-75.453 6.218-44.65 40.598-67.547 83.832-63.652 3.279-4.64 6.877-9.094 10.974-13.403 7.293-8.154 18.14-8.41 13.262 1.252-9.834 18.608-13.72 32.657-22.166 55.217-8.417 23.995-21.429 59.213-38.75 121.047-1.253 5.664-10.128 4.76-9.68.207zm108.318-81.996c-5.622 42.633-45.47 66.827-85.081 62.65 2.875-9.722 4.237-13.867 7.57-21.703 2.514-4.522 11.926-6.369 19.236-9.476 14.847-5.336 26.249-18.588 28.403-35.311 1.516-11.857-1.948-23.218-8.737-32-4.747-6.024-9.222-9.675-7.694-15.33 2.249-7.636 3.974-13.303 8.167-22.898 26.026 13.98 42.251 43.014 38.136 74.068zM85.042 121.18c-1.47 11.404 1.636 22.29 7.862 30.877 4.15 5.543 7.328 8.774 8.885 11.318 5.128-27.777 8.83-42.145 13.763-58.266 2.212-6.734 5.876-16.18 8.527-22.61-3.162 1.058-7.649 2.235-11.313 3.67-14.516 5.442-25.611 18.558-27.724 35.01z" fill="#278CC0"/></svg>
